icons/mobile/72/svg/private-mode-fill-72.svg

<svg width="72" height="72" viewBox="0 0 72 72" fill="none" xmlns="http://www.w3.org/2000/svg">
<path d="M64.9511 40.753C62.1075 40.753 60.6576 38.692 60.1151 35.8916C59.3293 31.8343 57.9637 27.9988 56.3454 24.1725C55.5129 22.2039 53.9882 17.6845 51.472 17.167C48.6096 16.5755 46.084 18.1189 42.8195 24.6624C40.1349 30.0598 38.3202 33.8213 38.3202 33.8213V33.8583L36.4774 33.8398C36.4774 33.8398 36.4587 33.8398 36.4307 33.8398C36.4307 33.8398 36.3184 33.8398 36.1781 33.8398C36.1407 33.8398 36.1126 33.8398 36.0752 33.8398C36.0471 33.8398 36.0191 33.8398 35.991 33.8398C35.963 33.8398 35.9349 33.8398 35.9068 33.8398C35.8694 33.8398 35.832 33.8398 35.8039 33.8398C35.6636 33.8398 35.5514 33.8398 35.5514 33.8398L35.5046 33.8491L33.6619 33.8676V33.8306C33.6619 33.8306 31.8472 30.0598 29.1626 24.6716C25.9074 18.1189 23.3724 16.5847 20.5101 17.1762C17.9939 17.6938 16.4691 22.2224 15.6366 24.1818C14.0184 28.008 12.6527 31.8343 11.867 35.9008C11.3244 38.7012 9.8839 40.753 7.03092 40.7622C6.3013 40.7622 5.81489 41.5201 6.06745 42.1947C6.67547 43.8214 8.54627 44.8565 10.1084 45.4572C9.40684 45.6421 7.31154 45.2169 7.218 46.2705C7.14317 47.1301 9.33201 47.9988 9.92132 48.2761C15.4308 50.9286 20.5007 55.6883 27.0205 54.8473C29.8548 54.4776 31.922 52.4813 34.2418 51.2428C35.3362 50.6606 36.6645 50.6606 37.7589 51.2428C40.0787 52.4813 42.146 54.4776 44.9803 54.8473C51.5 55.6883 56.5699 50.9286 62.0794 48.2761C62.6687 47.9896 64.8482 47.1301 64.7828 46.2705C64.6986 45.2262 62.6033 45.6421 61.8924 45.4572C63.4545 44.8565 65.3253 43.8214 65.9333 42.1947C66.1859 41.5201 65.6901 40.7714 64.9698 40.7622L64.9511 40.753ZM18.7702 42.1485C18.6861 41.2705 20.5943 40.5958 21.2865 40.4849C25.4023 39.801 30.8557 41.4092 32.1839 45.6698C28.4049 49.1171 20.6223 46.7419 18.7702 42.1578V42.1485ZM39.7888 45.6698C41.117 41.4092 46.5704 39.801 50.6862 40.4849C51.3784 40.5958 53.2866 41.2705 53.2025 42.1485C51.341 46.7326 43.5678 49.1171 39.7888 45.6606V45.6698Z" fill="black"/>
</svg>

<!-- This Source Code Form is subject to the terms of the Mozilla Public
   - License, v. 2.0. If a copy of the MPL was not distributed with this
   - file, You can obtain one at http://mozilla.org/MPL/2.0/. -->
<svg xmlns="http://www.w3.org/2000/svg" width="72" height="72" fill="none" viewBox="0 0 72 72">
    <path fill="#000" d="M64.951 40.753c-2.843 0-4.293-2.061-4.836-4.861-.786-4.058-2.151-7.893-3.77-11.72-.832-1.968-2.357-6.488-4.873-7.005-2.862-.591-5.388.952-8.653 7.495-2.684 5.398-4.499 9.16-4.499 9.16v.036l-1.843-.018h-.926l-.046.01-1.843.018v-.037s-1.815-3.771-4.5-9.16c-3.255-6.552-5.79-8.086-8.652-7.495-2.516.518-4.04 5.046-4.873 7.006-1.619 3.826-2.984 7.652-3.77 11.719-.543 2.8-1.983 4.852-4.836 4.861-.73 0-1.216.758-.964 1.433.608 1.626 2.48 2.661 4.041 3.262-.701.185-2.796-.24-2.89.813-.075.86 2.114 1.729 2.703 2.006 5.51 2.653 10.58 7.412 17.1 6.571 2.834-.37 4.901-2.366 7.22-3.604a3.76 3.76 0 0 1 3.518 0c2.32 1.238 4.387 3.235 7.221 3.604 6.52.841 11.59-3.918 17.1-6.57.589-.287 2.768-1.147 2.703-2.007-.084-1.044-2.18-.628-2.89-.813 1.562-.6 3.432-1.636 4.04-3.262.253-.675-.243-1.424-.963-1.433zm-46.18 1.395c-.085-.878 1.823-1.552 2.515-1.663 4.116-.684 9.57.924 10.898 5.185-3.78 3.447-11.562 1.072-13.414-3.512zm21.018 3.522c1.328-4.26 6.781-5.869 10.897-5.185.692.11 2.6.785 2.517 1.663-1.862 4.585-9.635 6.97-13.414 3.513z" />
</svg>
